src/assets/images/rightArrowBlack.svg

<svg fill="none" height="7" viewBox="0 0 12 7" width="12" xmlns="http://www.w3.org/2000/svg"><path clip-rule="evenodd" d="m9.95276 3.97568h-9.329076c-.344273 0-.623684-.27941-.623684-.62369 0-.34427.279411-.62368.623684-.62368h9.329066l-1.66398-1.66399c-.24324-.243239-.24324-.638655 0-.881892.24323-.2432372.63865-.2432372.88189 0l2.64694 2.645672c.1439.14393.2027.34114.1763.52858.0231.18462-.036.37767-.1776.51921l-2.64564 2.64567c-.24324.24323-.63866.24323-.88189 0-.24324-.24324-.24324-.63866 0-.88189z" fill="#000" fill-rule="evenodd"/></svg>

<svg width="12" height="7" viewBox="0 0 12 7" fill="none" xmlns="http://www.w3.org/2000/svg">
<path fill-rule="evenodd" clip-rule="evenodd" d="M9.95276 3.97568H0.623684C0.279411 3.97568 0 3.69627 0 3.35199C0 3.00772 0.279411 2.72831 0.623684 2.72831H9.95275L8.28877 1.06432C8.04553 0.821081 8.04553 0.425665 8.28877 0.182428C8.532 -0.0608092 8.92742 -0.0608092 9.17066 0.182428L11.8176 2.8281C11.9615 2.97203 12.0203 3.16924 11.9939 3.35668C12.017 3.5413 11.9579 3.73435 11.8163 3.87589L9.17066 6.52156C8.92742 6.76479 8.532 6.76479 8.28877 6.52156C8.04553 6.27832 8.04553 5.8829 8.28877 5.63967L9.95276 3.97568Z" fill="black"/>
</svg>
